X:497
T:Reel 497
M:4/4
K:Amaj
L:1/8
CB,CD EFGA|DFED CA,A,2|CB,CD E2AG|FGAG BAGA|EdcB AGAE|FEDE FGAB|cABG AGFE|DCDE FGA2|EAEC D2DE|CDED CA,A,G,|E,A,B,C DEFG|AGBG FAA2|ECA,C DEFG|AGAF EDCD|CB,A,G,  (3B,CD B,B|cABG A2ED|
